svgs/solid/square-divide.svg

<svg xmlns="http://www.w3.org/2000/svg" viewBox="0 0 448 512"><!-- Font Awesome Pro 6.0.0-alpha2 by @fontawesome - https://fontawesome.com License - https://fontawesome.com/license (Commercial License) --><path d="M384 32H64C28.654 32 0 60.656 0 96V416C0 451.344 28.654 480 64 480H384C419.346 480 448 451.344 448 416V96C448 60.656 419.346 32 384 32ZM224 128C241.674 128 256 142.326 256 160C256 177.672 241.674 192 224 192S192 177.672 192 160C192 142.326 206.326 128 224 128ZM224 384C206.326 384 192 369.672 192 352C192 334.326 206.326 320 224 320S256 334.326 256 352C256 369.672 241.674 384 224 384ZM319.998 280H127.998C114.797 280 103.996 269.197 103.996 256C103.996 242.799 114.797 232 127.998 232H319.998C333.195 232 343.996 242.799 343.996 256C343.996 269.197 333.195 280 319.998 280Z"/></svg>

<svg xmlns="http://www.w3.org/2000/svg" viewBox="0 0 448 512"><!--! Font Awesome Pro 6.3.0 by @fontawesome - https://fontawesome.com License - https://fontawesome.com/license (Commercial License) Copyright 2023 Fonticons, Inc. --><path d="M64 32C28.7 32 0 60.7 0 96V416c0 35.3 28.7 64 64 64H384c35.3 0 64-28.7 64-64V96c0-35.3-28.7-64-64-64H64zM224 192c-17.7 0-32-14.3-32-32s14.3-32 32-32s32 14.3 32 32s-14.3 32-32 32zm-88 40H312c13.3 0 24 10.7 24 24s-10.7 24-24 24H136c-13.3 0-24-10.7-24-24s10.7-24 24-24zM256 352c0 17.7-14.3 32-32 32s-32-14.3-32-32s14.3-32 32-32s32 14.3 32 32z"/></svg>
